X:1742
L:1/8
M:6/8
K:G
 D | G2 B ABc | B2 G FED | G2 B ABc | d3 D2 D | G2 B ABc | B2 G FED | EFG AFD | G3 G2 :: D | 
 G2 g f2 e | d2 c B2 A | G2 g f2 g | g3 d2 d | G2 g f2 e | dcB ABc | B2 G AFD | G3 G2 :|

